X: 338
T: Cronin's Frolics
C: anon.
O: Ireland
B: Francis O'Neill: "The Dance Music of Ireland" (1907) no. 338
R: Double jig
Z: Transcribed by Frank Nordberg - http://www.musicaviva.com
F: http://www.musicaviva.com/abc/tunes/ireland/oneill-1001/oneill-1001-033
8.abc
M: 6/8
L: 1/8
K: D
G|FEF AFD|dcd ecA|fed gec|dcd ecA|FEF AFA|dfa ece|fed ge(c|A)dd d2:|
||c|ecA efg|afd bge|afd gec|(d/e/f)(d e)cA|FEF AFA|(d/e/f)(a e)cA|faf ge(
c|e)dd d2:|
||g|afd dgf|ecA Afg|afd Bg(f|e)fd (cB)A|afd (dcd)|(gfg) ece|fed ge(c|e)dd
 d2:|
||B|AFD DFA|(dcd) AFD|AFD DEF|(G/A/B)(G E)FG|ABA DFA|(d/e/f)(a e)ce|faf g
e(c|e)dd d2:|
W:
W:
W: From Musica Viva - http://www.musicaviva.com
W: the Internet center for free sheet music downloads.


